X: 987
T: Hayatın Cümleye
C: Dellalzâde İsmail Efendi
O: Turkey
F: http://compmusic.upf.edu/node/140
N: acemasiran--beste--zencir--hayatin_cumleye--dellalzade_haci_ismail_efendi
N: makam= acemasiran
N: form= beste
N: usul= zencir = 120/4
M: 120/4
L: 1/16
K: C _B   
Q: 1/4=66
%%MIDI tuningsystem comma53
z2 c4 g2 e2 f4 ed  | c3B Bc BA A8  | \
w:   |   | 
z2 A4 a2 a4 a3g  | f2 g2 g3f fe f2 g2 e2  | 
w:   |   | 
f4 f4 z4 c4  | c2 c2 dc c=B c2 de fe dc  | \
w:   |   | 
f4 z2 f4 a2 ag fe  | 
w:   | 
d2 c'2 c'b ag f3a ag gf  | f/e/f ge f4 z2 cd cB BA  | 
w:   |   | 
AG F2 z2 f4 d'2 c'2 b2  | a2 g2 a2 b2 c'4 z2 f4 gf g2 z2 f2 e2 d2 eg  | 
w:   |   | 
fe d^c d2 z2 d4 e2 f2  | g2 ^1/4f2 a2 g2 z2 c2 e2 e2  | \
w:   |   | 
d3c c/=B/c dB c4 z2 c2  | 
w:   | 
f3e ed d^c d2 z2 d2 d2  | f2 _e2 d2 c2 d3c B4  | \
w:   |   | 
A2 z2 c2 B2 A2 G2 A2 B2  | 
w:   | 
c2 c4 d2 e2 de f3e  | d2 z2 d2 g2 gf fe ed d^c  | \
w:   |   | 
d4 z2 g2 a4 z2 f2  | 
w:   | 
g4 z2 e2 f3g a2 c'b  | ba ag g/f/e/d/ c2 g2 f8 f6 gf e2 d6 ed c2 z2 _7/8e4 dc c3B cB A2 AB cd =ef g2 gf  | 
w:   |   | 
f_e ed dc cB AG A4 z2  | G4 A2 B3d c2 B2 A3G F2 A2 G3F F/E/F GE F8 a3g gf fe f6 z2 z2 c4 g2 e2  | 
w:   |   | 
f4 ed c3B Bc BA A8 z2 A4 a2 a4 a3g f2 g2 g3f fe  | 
w:   | 
f2 g2 e2 f4 f4 z4 c4 c2 c2 dc c=B c2  | \
w:   | 
de fe dc f4 z2 f4  | 
w:   | 
a2 ag fe d2 c'2 c'b ag f3a ag gf f/e/f ge f4 z2  | 
w:   | 
cd cB BA AG F2 z2 f4  | d'2 c'2 b2 a2 g2 a2 b2 c'4 z2 f4 gf g2 z2 f2  | 
w:   |   | 
e2 d2 eg fe d^c d2 z2 d4 e2 f2 g2 ^1/4f2 a2 g2 z2  | \
w:   | 
c2 e2 e2 d3c c/=B/c dB c4 z2 c2 f3e ed d^c d2  | 
w:   | 
z2 d2 d2 f2 _e2 d2 c2 d3c B4 A2 z2 c2 B2 A2  | \
w:   | 
G2 A2 B2 c2 c4 d2 e2  | 
w:   | 
de f3e d2 z2 d2 g2 gf  | fe ed d^c d4 z2 g2 a4 z2 f2 g4 z2 e2 f3g a2 c'b ba ag g/f/e/d/ =c2 g2  | 
w:   |   | 
f8 f6 gf  | e2 d6 ed c2 z2 _7/8e4 dc c3B cB A2 AB cd  | 
w:   |   | 
ef g2 gf f_e ed dc cB AG  | A4 z2 G4 A2 B3d  | 
w:   |   | 
c2 B2 A3G F2 A2 G3F  | F/E/F GE F8 a3g  | \
w:   |   | 
gf fe f6 z2 g4  | 
w:   | 
a4 a6 z2 z2 g4 a2 a6 g2 a3g  | f2 ga g2 a6 a2 c'4 _1/4ba a8 z2 a4 c'2 _b3a a3g g3a  | 
w:   |   | 
g3f gf ef g4 z2 c'b  | ba ag ag f2 z2 f4 a2  | \
w:   |   | 
g2 f2 e2 gf ef ed d2 gf  | 
w:   | 
ef ed d/c/d ec d4 z2 A2  | Ac BA A4 z2 A4 c2  | \
w:   |   | 
c3B B3A A3G d2 c2  | 
w:   | 
B2 A4 G2 z2 F4 G2  | A2 G2 GF FE F4 z2 G2  | \
w:   |   | 
A4 z2 =B2 c4 z2 f2  | 
w:   | 
f2 e2 d2 ^c2 d2 e2 fg fe  | ed d^c d4 |
w:   |   | 


